X:1
T: Lick the Laddle, Sandie
C:William Marshall
R:Reel
Q: 232
K:D
M:4/4
L:1/8
|:ef ^g2 a2 e2|f2 d2 e2 c2|B2 g2 g2 B2|d4 f4|ef ^g2 a2 e2|f2 d2 e2 c2|d2 a2 a2 c2|e4 f4:|
|:e2 A2 c2 A2|e2 A2 c2 A2|B2 g2 g2 B2|d4 f4|e2 A2 c2 A2|a^g fe c2 A2|A2 a2 a2 c2|e4 f4:|
|:e2 a2 c2 a2|A2 a2 c2 a2|B2 g2 g2 B2|d4 f4|e2 a2 c2 a2|A2 a2 c2 a2|e2 a2 a2 c2|e4 f4:|
|:e2 A2 dc BA|e2 A2 dc BA|B2 g2 g2 B2|d4 f4|e2 A2 dc BA|a^g fe c2 A2|e2 a2 a2 c2|e4 f4:|
